packages/kaspersky-hexa-ui-icons/src/iconsSVGs/16/HexColor.svg

<svg width="16" height="16" viewBox="0 0 16 16" fill="none" xmlns="http://www.w3.org/2000/svg">
<path fill-rule="evenodd" clip-rule="evenodd" d="M7.09791 1.23967C7.65713 0.920108 8.34366 0.920111 8.90288 1.23968L13.4503 3.83828C14.0171 4.16214 14.3669 4.76486 14.3669 5.41762V10.5824C14.3669 11.2351 14.0171 11.8379 13.4503 12.1617L8.90288 14.7603C8.34366 15.0799 7.65713 15.0799 7.09791 14.7603L2.55032 12.1617C1.98356 11.8379 1.63379 11.2351 1.63379 10.5824V5.41763C1.63379 4.76486 1.98356 4.16215 2.55032 3.83828L7.09791 1.23967ZM9.81934 6.18099H6.18132V9.81901H9.81934V6.18099Z" fill="#1E856F"/>
</svg>

<svg xmlns="http://www.w3.org/2000/svg" width="16" height="16" fill="none" viewBox="0 0 16 16"><path fill="#1e856f" fill-rule="evenodd" d="M7.098 1.2397a1.819 1.819 0 0 1 1.8049 0l4.5474 2.5986a1.819 1.819 0 0 1 .9166 1.5793v5.1648a1.819 1.819 0 0 1-.9166 1.5793l-4.5474 2.5986a1.819 1.819 0 0 1-1.805 0l-4.5476-2.5986a1.819 1.819 0 0 1-.9165-1.5793V5.4176a1.819 1.819 0 0 1 .9165-1.5793zM9.8192 6.181h-3.638v3.638h3.638z" clip-rule="evenodd"/></svg>
